icons/op-email-alert-24.svg

<svg width="24" height="24" viewBox="0 0 24 24" fill="none" xmlns="http://www.w3.org/2000/svg">
<path fill-rule="evenodd" clip-rule="evenodd" d="M11.9159 8.81269C11.9159 6.7073 13.7257 5 15.958 5C18.1902 5 20 6.7073 20 8.81269C20 10.9182 18.1902 12.6253 15.958 12.6253C13.7257 12.6253 11.9159 10.9182 11.9159 8.81269ZM15.7416 6.90629C15.7017 6.90629 15.6692 6.93689 15.6692 6.97454V9.28932C15.6692 9.32674 15.7017 9.35734 15.7416 9.35734H16.1744C16.2143 9.35734 16.2466 9.32674 16.2466 9.28932V6.97454C16.2466 6.93689 16.2143 6.90629 16.1744 6.90629H15.7416ZM15.6573 10.5966C15.7367 10.6728 15.8446 10.7169 15.958 10.7191C16.0713 10.7169 16.1793 10.6728 16.2586 10.5966C16.3378 10.5202 16.3822 10.4174 16.3822 10.3105C16.3822 10.2037 16.3378 10.101 16.2586 10.0245C16.1793 9.94819 16.0713 9.90431 15.958 9.902C15.8446 9.90431 15.7367 9.94819 15.6573 10.0245C15.5781 10.101 15.5337 10.2037 15.5337 10.3105C15.5337 10.4174 15.5781 10.5202 15.6573 10.5966Z" fill="black"/>
<path d="M5.13087 8.73346H10.9267C10.9265 8.7464 10.9265 8.75957 10.9265 8.77262C10.9265 9.11123 10.9649 9.44165 11.0379 9.76006H6.37491L11.9159 13.2404L12.9891 12.5664C13.3224 12.7947 13.6869 12.9859 14.0757 13.1331L12.2382 14.2876C12.1436 14.3473 12.0312 14.3792 11.9159 14.3792C11.8007 14.3792 11.6881 14.3473 11.5936 14.2876L5.13087 10.2272V17.9734H18.7009V12.7381C19.1254 12.4848 19.5067 12.1739 19.8319 11.8175V17.9734C19.8319 18.2457 19.7126 18.5069 19.5007 18.6994C19.2885 18.8919 19.0007 19 18.7009 19H5.13087C4.83091 19 4.54328 18.8919 4.33121 18.6994C4.11915 18.5069 4 18.2457 4 17.9734V9.76006C4 9.48773 4.11915 9.22661 4.33121 9.03409C4.54328 8.84156 4.83091 8.73346 5.13087 8.73346Z" fill="black"/>
</svg>

<svg xmlns="http://www.w3.org/2000/svg" width="24" height="24" viewBox="0 0 24 24"><path d="M11.916 8.813c0-2.106 1.81-3.813 4.042-3.813C18.19 5 20 6.707 20 8.813c0 2.105-1.81 3.812-4.042 3.812-2.232 0-4.042-1.707-4.042-3.812Zm3.826-1.907c-.04 0-.073.031-.073.069v2.314c0 .038.033.068.073.068h.432c.04 0 .073-.03.073-.068V6.975c0-.038-.033-.069-.073-.069Zm-.085 3.691a.45.45 0 0 0 .301.122.45.45 0 0 0 .301-.122.4.4 0 0 0 .123-.286.4.4 0 0 0-.123-.287.45.45 0 0 0-.301-.122.45.45 0 0 0-.301.122.4.4 0 0 0-.123.287.4.4 0 0 0 .123.286Z"/><path d="M5.131 8.733h5.796v.04c0 .338.038.669.111.987H6.375l5.541 3.48 1.073-.674a5.1 5.1 0 0 0 1.087.567l-1.838 1.155a.609.609 0 0 1-.644 0l-6.463-4.061v7.746h13.57v-5.235a5.003 5.003 0 0 0 1.131-.92v6.155a.98.98 0 0 1-.331.726c-.213.193-.5.301-.8.301H5.131c-.3 0-.588-.108-.8-.301A.98.98 0 0 1 4 17.973V9.76c0-.272.119-.533.331-.726.212-.192.5-.301.8-.301Z"/></svg>
